X: 69
T:Lamplighter's Hornpipe
% Nottingham Music Database
S:via PR
M:4/4
L:1/4
K:A
c/2d/2|"A"e/2c/2c/2c/2 e/2a/2g/2f/2|e/2A/2A/2e/2 e/2a/2g/2f/2|\
"A"f/2e/2c/2e/2 "F#m"f/2e/2d/2c/2|"Bm"d/2e/2d/2c/2 "E"Bc/2d/2|
"A"e/2c/2c/2c/2 """e"e/2a/2g/2f/2|"A"e/2A/2A/2e/2 """e"e/2a/2g/2f/2|\
"A""c#"e/2a/2g/2f/2 "Bm"e/2d/2c/2B/2|"E"B/2A/2G/2B/2 "A"A::
c/2d/2|"A"e/2d/2c/2d/2 ef/2e/2|"Bm"d/2c/2B/2c/2 "E"d3/2d/2|\
"A"c/2e/2A/2c/2 "F#m"d/2c/2B/2A/2|"Bm"G/2A/2B/2c/2 "E"Bc/2d/2|
"A"e/2d/2c/2d/2 "A7"ef/2e/2|"D"d/2c/2B/2c/2 "Bm"d3/2d/2|\
"A""e"c/2a/2A/2c/2 "E"B/2A/2G/2B/2|"A"A/2c/2B/2G/2 A:|<end>
<start>
